svg/fluentui-system-icons/ic_fluent_text_align_center_20_regular.svg

<svg width="20" height="20" viewBox="0 0 20 20" fill="none" xmlns="http://www.w3.org/2000/svg">
<path d="M4 4.5C4 4.22386 4.22386 4 4.5 4H15.5C15.7761 4 16 4.22386 16 4.5C16 4.77614 15.7761 5 15.5 5H4.5C4.22386 5 4 4.77614 4 4.5ZM2 9.5C2 9.22386 2.22386 9 2.5 9H17.5C17.7761 9 18 9.22386 18 9.5C18 9.77614 17.7761 10 17.5 10H2.5C2.22386 10 2 9.77614 2 9.5ZM6.5 14C6.22386 14 6 14.2239 6 14.5C6 14.7761 6.22386 15 6.5 15H13.5C13.7761 15 14 14.7761 14 14.5C14 14.2239 13.7761 14 13.5 14H6.5Z" fill="#212121"/>
</svg>

<svg xmlns="http://www.w3.org/2000/svg" width="20" height="20"><path d="M4 4.5a.5.5 0 0 1 .5-.5h11a.5.5 0 0 1 0 1h-11a.5.5 0 0 1-.5-.5Zm-2 5a.5.5 0 0 1 .5-.5h15a.5.5 0 0 1 0 1h-15a.5.5 0 0 1-.5-.5ZM6.5 14a.5.5 0 0 0 0 1h7a.5.5 0 0 0 0-1h-7Z"/></svg>
